X: 3295
T: Belhavel Lough
R: reel
M: 4/4
K: Adorian
a2 edce A2|BGAF GABd|cA A2 eAcA|GABc defg|
a2 edce A2|BGAF GABd|cA A2 agaf|gedB cA A2:|
caeA cAeA|cAeA cA A2|BGdG BGdG|BGEF GABG|
A2 eA fded|Bgaf GABd|cA A2 agaf|gedB cA A2:|
ea a2 eaba|bgef gdBd|eg g2 dgba|gede gabg|
ea a2 eaba|gedB GABd|cA A2 agaf|gedB cA A2:|
ce e2 efec|d2 BG dGBd|e2 de g2 ba|gedB ABcd|
eA A2 eABA|GEDE GABd|cA A2 agaf|gedB cA A2:|

